X: 95
M:6/8
L:1/8
K:F
|:f2 f g>fg| a>ba g2 c| f2 f g>fg|a3 g3| a>ba g>fe| f>ed a3| A2 A f>ed| ^c3 d3:|

